X:1
T:Title
%%score { ( 1 3 ) | ( 2 4 ) }
L:1/8
Q:1/4=120
M:4/4
K:C
V:1 treble nm="Grand Piano"
V:3 treble 
V:2 bass 
V:4 bass 
V:1
 [G,EG]2 [EA]2 [EB]2 [Ec]2 | [G,EG]2 [EA]2 [EB]2 [Ec]2 | [FB]2 [DF]2 [G,DF]2 [^CE]2 | [DF]8 | %4
w: J.~Lincoln~Hall * * *||||
 [G,DF]2 [DG]2 [FA]2 [DFB]2 | [G,DF]2 [DG]2 [FA]2 [DFB]2 | [EA]2 [CE]2 [G,CE]2 [C_E]2 | [CE]8 | %8
w: ||||
 [G,EG]2 [EA]2 [EB]2 [Ec]2 | [G,EG]2 [EA]2 [EB]2 [Ec]2 | [Fd]2 [A,DFA]2 [A,DFA]2 [A,DF^G]2 | %11
w: |||
 [FA]8 | [^Fd]2 [A,DFA]2 [A,DFA]2 [Fe]2 | [Gd]2 [B,DGB]2 [B,DG]2 [Ge]2 | [^Fd]2 c2 B2 A2 | %15
w: ||||
 [B,DG]8[K:bass] | E4[K:treble] G4 | A4 G4 | A2 B2 c2 B2 | A4 F4 | F4 B4 | e4 d4 | %22
w: |||||||
 F2 G2 B2 [DFA]2 | A4 E4 | E4 G4 | A4 G4 | c2 e2 d2 c2 | B4 A4 | A4 d4 | G4 e4 | %30
w: ||||||||
 [Fe]2 [Fd]2 [B,DFA]2 [DFB]2 | c8 |] %32
w: ||
V:2
 C,2 G,,2 [C,G,]2 G,,2 | C,2 G,,2 [B,,G,]2 G,,2 | [D,G,]2 G,,2 D,2 G,,2 | D,2 G,,2 D,2 G,,2 | %4
 D,2 G,,2 [D,G,D]2 G,,2 | D,2 G,,2 [D,G,D]2 G,,2 | [C,G,]2 G,,2 C,2 G,,2 | C,2 G,,2 C,2 G,,2 | %8
 C,2 G,,2 [C,G,]2 G,,2 | C,2 G,,2 [C,G,]2 G,,2 | D,2 F,2 F,2 F,2 | D,2 F,2 F,2 F,2 | %12
 D,2 ^F,2 F,2 [F,A,D]2 | D,2 G,2 G,2 [G,B,D]2 | D,2 [^F,A,CE^F]2 [F,A,CDF]2 [F,A,CDF]2 | %15
 [G,,G,]2 F,,2 D,,2 G,,2 | z2 G,2 z2 [G,C]2 | z2 [G,C]2 z2 [G,C]2 | z2 [G,CE]2 [G,CE]2 [G,CE]2 | %19
 z2 [G,B,D]2 z2 [D,G,B,]2 | D,2 [D,G,B,]2 z2 [D,G,D]2 | z2 [B,DFG]2 z2 [D,G,]2 | %22
 z2 [G,B,DF]2 z2 [D,G,B,]2 | z2 [G,C]2 z2 G,2 | z2 G,2 z2 [G,C]2 | z2 [G,C]2 z2 [G,C]2 | %26
 z2[K:treble] [G,CEG]2 [G,CEG]2 [G,CEG]2 | z2 [A,C]2 z2 [A,C]2 | z2 [F,A,D]2 z2[K:treble] [A,DF]2 | %29
 z2 C2 z2 [CE]2 | [A,C]2 [A,C]2 z2 B,2 | z2 A,2 G,4 |] %32
V:3
 x8 | x8 | x8 | G,2 z2 G,2 z2 | x8 | x8 | x8 | G,2 z2 G,2 z2 | x8 | x8 | x8 | %11
 z2 [A,D]2 [A,D]2 [A,D]2 | x8 | x8 | x8 | z2[K:bass] F,2 D,2 G,2 | z2 C2[K:treble] z2 E2 | %17
 z2 E2 z2 E2 | x8 | z2 F2 z2 D2 | z2 D2 z2 F2 | z2 B2 z2 [FGB]2 | x8 | z2 E2 z2 C2 | z2 C2 z2 E2 | %25
 z2 E2 z2 E2 | x8 | z2 F2 z2 F2 | z2 F2 z2 A2 | z2 E2 z2 G2 | x8 | [CE]2 F2 E4 |] %32
V:4
 x8 | x8 | x8 | x8 | x8 | x8 | x8 | x8 | x8 | x8 | x8 | x8 | x8 | x8 | x8 | x8 | C,4 C,4 | %17
 C,4 C,4 | C,8 | D,4 G,,4 | z4 G,,4 | G,4 G,,4 | D,4 G,,4 | C,4 C,4 | C,4 C,4 | C,4 C,4 | %26
 E,8[K:treble] | F,4 F,4 | D,4 F,4[K:treble] | G,4 G,4 | D,4 G,4 | C,8 |] %32

